X:178
T:Deer Forest, The
R:Reel
B:The Athole Collection
M:C|
L:1/8
K:D Minor
c|AfAa|f>cAF G/G/G A2|1 A>ddf c>fAd|BG G/G/G FD D:|2
a>gfd cBAd|BG G/G/G FDD||D<GGB cBAc|B<GGB cAFA|1
D<GGB cBAd|BG G/G/G FDD:|2 Ad d/d/d cA A/A/A|BG G/G/G FDD||
